findly-builder/apps/searchassist/src/assets/images/dashboard-icons/pieEmpty.svg

<svg width="214" height="215" xmlns="http://www.w3.org/2000/svg"><g transform="translate(.735 .685)" fill="#E5E8EC"><ellipse opacity=".6" cx="106.551" cy="107.039" rx="106.551" ry="107.039"/><path d="m106.347 105.753-.166.212.003-.23-.484-.054.494-.633L107.76.108c20.083.433 40.33 6.472 58.282 18.581a110.717 110.717 0 0 1 4.908 3.509l.1-.13c30.307 23.227 45.128 59.818 41.671 95.645l-106.374-11.96Z"/></g></svg>

<?xml version="1.0" encoding="UTF-8"?>
<svg width="214px" height="215px" viewBox="0 0 214 215" version="1.1" xmlns="http://www.w3.org/2000/svg" xmlns:xlink="http://www.w3.org/1999/xlink">
    <!-- Generator: Sketch 53.2 (72643) - https://sketchapp.com -->
    <title>Group 29</title>
    <desc>Created with Sketch.</desc>
    <g id="Page-1" stroke="none" stroke-width="1" fill="none" fill-rule="evenodd">
        <g id="no-widgets" transform="translate(-885.000000, -195.000000)" fill="#E5E8EC" fill-rule="nonzero">
            <g id="Group" transform="translate(0.000000, 108.000000)">
                <g id="Group-29" transform="translate(885.735000, 87.685000)">
                    <ellipse id="Oval" opacity="0.6" cx="106.551" cy="107.039" rx="106.551" ry="107.039"></ellipse>
                    <path d="M106.347,105.753 L106.181,105.965 L106.184,105.735 L105.7,105.681 L106.194,105.048 L107.76,0.108 C127.843,0.541 148.09,6.58 166.042,18.689 C167.709572,19.8138654 169.346179,20.9839664 170.95,22.198 L171.05,22.068 C201.357,45.295 216.178,81.886 212.721,117.713 L106.347,105.753 L106.347,105.753 Z" id="Path"></path>
                </g>
            </g>
        </g>
    </g>
</svg>
